X:6653
T:Habanera
R:Habanera
C:Tradicional
S:Msica Tradicional Asturiana, (C) Tello & Tito. Asturies, 2001.
S:http://pagina.de/MusTradAst <telloytito@asturies.org>
A:Asturies
Z:Danzas y Bailes I
M:2/4
L:1/8
Q:1/4=88
K:F
c|c/BA/ Bd|dG2B|A/^FG/ AB|AG2c|c/BA/ Bd|dG2B|A/^FG/ AB|A G3-|G2 z2|
